!!!OTL: 780. Scheidelied.
!!!ARE: Europa, Mitteleuropa, Deutschland, Hessen, Darmstadt; Taunus
!!!SCT: E0780
!!!TXL: @@DE
!!!YEM: Copyright 1995, estate of Helmut Schaffrath.
**kern	**text
*ICvox	*
*M3/4	*
*k[b-e-]	*
*B-:	*
!LO:TX:a:t=Etwas langsam.	!
!LO:TX:a:t=Aus dem Heſſen-Darmſtädtiſchen 1858 und Taunus (Wärgers 1877).	!
{4f	Bald
=1	=1
4b-	ſind
4.d	wir
8d	auf
=2	=2
4d	e-
4.g	-wig
8f	ge-
=3	=3
4f	-ſchie-
4e-	-den
8r}	.
{8e-	und
=4	=4
4cc	ſehn
4.cc	uns
8b-	im
=5	=5
4a	Le-
4g	-ben
4f	nicht
=6	=6
2b-;}	mehr.
{4f	Ʒwar
=7	=7
4g	ſchei-
4.g	-den
8a	wir
=8	=8
4b-	al-
4.b-	-le
8g	in
=9	=9
4g	Frie-
4f	-den,
8r}	.
{8f	doch
=10	=10
4f	ſchmerʒt
4b-	uns
4dd	die
=11	=11
4ee-	Trennung
4cc	.
4a	ſo
=12	=12
2b-}	ſehr!
==	==
!!!AGN: Abschieds - Lied, Liebe
!!!ONB: ESAC (Essen Associative Code) Database: ERK2
!!!AMT: simple triple
!!!AIN: vox
!!!EED: Helmut Schaffrath
!!!EEV: 1.0
!!!GTL: Abschieds- und Wanderlieder
!!!URL-scan: https://rosdok.uni-rostock.de/mcrviewer/recordIdentifier/rosdok_ppn745177662/iview2/phys_0584.iview2?x=193.8995864193107&y=2367.2448881934397&scale=0.7029437510502773&rotation=0&layout=singlePageLayout
!!!ENC: Anna Maria Matuszewska
!!!EEV: 2024/12/17
*-	*-
